static/sprites.svg

<svg
  xmlns="http://www.w3.org/2000/svg"
  xmlns:xlink="http://www.w3.org/1999/xlink"
>
  <defs>
    <symbol viewBox="0 0 24 24" id="ic-baseline-arrow-right"><path fill="currentColor" d="m10 17l5-5l-5-5z"></path></symbol>
    <symbol viewBox="0 0 24 24" id="ic-baseline-arrow-drop-down"><path fill="currentColor" d="m7 10l5 5l5-5z"></path></symbol>
    <symbol viewBox="0 0 24 24" id="github"><path fill="currentColor" fill-rule="evenodd" d="M12.006 2a9.847 9.847 0 0 0-6.484 2.44 10.32 10.32 0 0 0-3.393 6.17 10.48 10.48 0 0 0 1.317 6.955 10.045 10.045 0 0 0 5.4 4.418c.504.095.683-.223.683-.494 0-.245-.01-1.052-.014-1.908-2.78.62-3.366-1.21-3.366-1.21a2.711 2.711 0 0 0-1.11-1.5c-.907-.637.07-.621.07-.621.317.044.62.163.885.346.266.183.487.426.647.71.135.253.318.476.538.655a2.079 2.079 0 0 0 2.37.196c.045-.52.27-1.006.635-1.37-2.219-.259-4.554-1.138-4.554-5.07a4.022 4.022 0 0 1 1.031-2.75 3.77 3.77 0 0 1 .096-2.713s.839-.275 2.749 1.05a9.26 9.26 0 0 1 5.004 0c1.906-1.325 2.74-1.05 2.74-1.05.37.858.406 1.828.101 2.713a4.017 4.017 0 0 1 1.029 2.75c0 3.939-2.339 4.805-4.564 5.058a2.471 2.471 0 0 1 .679 1.897c0 1.372-.012 2.477-.012 2.814 0 .272.18.592.687.492a10.05 10.05 0 0 0 5.388-4.421 10.473 10.473 0 0 0 1.313-6.948 10.32 10.32 0 0 0-3.39-6.165A9.847 9.847 0 0 0 12.007 2Z" clip-rule="evenodd"></path></symbol>
    <symbol viewBox="0 0 15 15" id="copy"><path fill="currentColor" d="M1.55566 2.7C1.55566 2.03726 2.09292 1.5 2.75566 1.5H8.75566C9.41841 1.5 9.95566 2.03726 9.95566 2.7V5.1H12.3557C13.0184 5.1 13.5557 5.63726 13.5557 6.3V12.3C13.5557 12.9627 13.0184 13.5 12.3557 13.5H6.35566C5.69292 13.5 5.15566 12.9627 5.15566 12.3V9.9H2.75566C2.09292 9.9 1.55566 9.36274 1.55566 8.7V2.7ZM6.35566 9.9V12.3H12.3557V6.3H9.95566V8.7C9.95566 9.36274 9.41841 9.9 8.75566 9.9H6.35566ZM8.75566 8.7V2.7L2.75566 2.7V8.7H8.75566Z"></path></symbol>
    <symbol viewBox="0 0 24 24" id="tick"><path stroke="currentColor" strokeLinecap="round" strokeLinejoin="round" strokeWidth="2" d="M5 11.917 9.724 16.5 19 7.5"></path></symbol>
  </defs>
</svg>

<svg xmlns="http://www.w3.org/2000/svg"><defs><symbol id="ic-baseline-arrow-right" viewBox="0 0 24 24"><path fill="currentColor" d="m10 17 5-5-5-5z"/></symbol><symbol id="ic-baseline-arrow-drop-down" viewBox="0 0 24 24"><path fill="currentColor" d="m7 10 5 5 5-5z"/></symbol><symbol id="github" viewBox="0 0 24 24"><path fill="currentColor" fill-rule="evenodd" d="M12.006 2a9.847 9.847 0 0 0-6.484 2.44 10.32 10.32 0 0 0-3.393 6.17 10.48 10.48 0 0 0 1.317 6.955 10.045 10.045 0 0 0 5.4 4.418c.504.095.683-.223.683-.494 0-.245-.01-1.052-.014-1.908-2.78.62-3.366-1.21-3.366-1.21a2.711 2.711 0 0 0-1.11-1.5c-.907-.637.07-.621.07-.621.317.044.62.163.885.346.266.183.487.426.647.71.135.253.318.476.538.655a2.079 2.079 0 0 0 2.37.196c.045-.52.27-1.006.635-1.37-2.219-.259-4.554-1.138-4.554-5.07a4.022 4.022 0 0 1 1.031-2.75 3.77 3.77 0 0 1 .096-2.713s.839-.275 2.749 1.05a9.26 9.26 0 0 1 5.004 0c1.906-1.325 2.74-1.05 2.74-1.05.37.858.406 1.828.101 2.713a4.017 4.017 0 0 1 1.029 2.75c0 3.939-2.339 4.805-4.564 5.058a2.471 2.471 0 0 1 .679 1.897c0 1.372-.012 2.477-.012 2.814 0 .272.18.592.687.492a10.05 10.05 0 0 0 5.388-4.421 10.473 10.473 0 0 0 1.313-6.948 10.32 10.32 0 0 0-3.39-6.165A9.847 9.847 0 0 0 12.007 2Z" clip-rule="evenodd"/></symbol><symbol id="copy" viewBox="0 0 15 15"><path fill="currentColor" d="M1.556 2.7a1.2 1.2 0 0 1 1.2-1.2h6a1.2 1.2 0 0 1 1.2 1.2v2.4h2.4a1.2 1.2 0 0 1 1.2 1.2v6a1.2 1.2 0 0 1-1.2 1.2h-6a1.2 1.2 0 0 1-1.2-1.2V9.9h-2.4a1.2 1.2 0 0 1-1.2-1.2zm4.8 7.2v2.4h6v-6h-2.4v2.4a1.2 1.2 0 0 1-1.2 1.2zm2.4-1.2v-6h-6v6z"/></symbol><symbol id="tick" viewBox="0 0 24 24"><path stroke="currentColor" d="M5 11.917 9.724 16.5 19 7.5"/></symbol></defs></svg>
